!!!COM: Corelli, Arcangelo
!!!OTL: Sonate a tre [in b]
!!!XEN: Trio Sonata Opus 1, No. 6
!!!OPS: Opus 1
!!!ONM: No. 6
!!!OMV: Movement 2.
!!!YEC: Copyright 1994, Center for Computer Assisted Research in the Humanities
!!!YEM: Rights to all derivative electronic formats reserved.
!!!YEM: Refer to licensing agreement for further details.
!! For the following instrumentation: Violino I & II, Violone/Archlute,
!!    and Organo.
!! Largo.
**kern	**kern	**kern	**kern
*ICklav	*ICstr	*ICstr	*ICstr
*Iorgan	*Icello	*Ivioln	*Ivioln
*	*Iarchl	*	*
!Organo	!Violone	!Violin 2	!Violin 1
!	! or	!	!
!	!Archlute	!	!
*clefF4	*clefF4	*clefG2	*clefG2
*k[f#c#]	*k[f#c#]	*k[f#c#]	*k[f#c#]
*b:	*b:	*b:	*b:
*M4/4	*M4/4	*M4/4	*M4/4
*MM36	*MM36	*MM36	*MM36
=1-	=1-	=1-	=1-
8BB\L	8BB\L	1r	4r
8B\	8B\	.	.
8A\	8A\	.	8r
8G\J	8G\J	.	8b\
4F#\	4F#\	.	8ff#\L
.	.	.	8ff#\J
4E\	4E\	.	8.gg\L
.	.	.	16gg\Jk
=2	=2	=2	=2
8D\L	8D\L	1r	4ff#\
8E\J	8E\J	.	.
4F#\	4F#\	.	8r
.	.	.	8ff#\
4G#\	4G#\	.	8ee\L
.	.	.	8ee\J
4A#\	4A#\	.	8ee\L
.	.	.	(16ff#\L
.	.	.	16ee\JJ)
=3	=3	=3	=3
8B\L	8B\L	1r	4.dd\
8A#\	8A#\	.	.
8B\	8B\	.	.
8BB\J	8BB\J	.	(16ee\LL
.	.	.	16dd\JJ)
8F#\L	8F#\L	.	8cc#\L
8E\	8E\	.	8dd\J
8F#\	8F#\	.	8.cc#\L
8FF#\J	8FF#\J	.	.
.	.	.	16b\Jk
=4	=4	=4	=4
4.BB/	4.BB/	4r	16b\LL
.	.	.	16bb\
.	.	.	16aa\
.	.	.	16gg\JJ
.	.	8r	8ff#\L
8F#\	8F#\	8f#/	8aa\J
8E#\L	8E#\L	8cc#\L	8gg#\L
8F#\J	8F#\J	8cc#\J	(16aa\L
.	.	.	16gg#\JJ)
4BB/	4BB/	8.dd\L	8ff#\L
.	.	.	(16gg#\L
.	.	16dd\Jk	16ff#\JJ)
=5	=5	=5	=5
4.C#/	4.C#/	4cc#\	8ee#\L
.	.	.	8cc#\J
.	.	8r	[4aa\
8C#/	8C#/	8cc#\	.
4D#\	4D#\	8b\L	8aa\L]
.	.	8b\J	(16bb\L
.	.	.	16aa\JJ)
4E#\	4E#\	8b\L	[4gg#\
.	.	(16cc#\L	.
.	.	16b\JJ)	.
=6	=6	=6	=6
4.F#\	4.F#\	4.a/	8gg#\L]
.	.	.	(16aa\L
.	.	.	16gg#\JJ)
.	.	.	2ff#\
8AA/	8AA/	(16b/LL	.
.	.	16a/JJ)	.
4BB/	4BB/	8g#/L	.
.	.	8a/J	.
4C#/	4C#/	8.g#/L	8.ff#\L
.	.	16g#/Jk	16ee#\Jk
=7	=7	=7	=7
4FF#/	4FF#/	8f#/L	4.ff#\
.	.	8cc#/J	.
4D\	4D\	[4ff#\	.
.	.	.	8aa\
4BB/	4BB/	8ff#\L]	4.gg\
.	.	(16ee\L	.
.	.	16dd\JJ)	.
4C#/	4C#/	8ee\L	.
.	.	8ee\J	(16aa\LL
.	.	.	16gg\JJ)
=8	=8	=8	=8
4D\	4D\	8ee\L	4.ff#\
.	.	8a\J	.
4F#\	4F#\	[4dd\	.
.	.	.	(16gg\LL
.	.	.	16ff#\JJ)
4G#\	4G#\	8dd\L]	8ee\L
.	.	(16cc#\L	8ee\J
.	.	16b\JJ)	.
4A#\	4A#\	8cc#\L	8ee\L
.	.	8cc#\J	(16ff#\L
.	.	.	16ee\JJ)
=9	=9	=9	=9
4.B\	4.B\	8cc#/L	4.dd\
.	.	8f#/J	.
.	.	4b\	.
8BB/	8BB/	.	8dd\
8F#\L	8F#\L	4a#/	8cc#\L
8F#\J	8F#\J	.	(16dd\L
.	.	.	16cc#\JJ)
8.G\L	8.G\L	4b\	8b\L
.	.	.	(16cc#\L
16G\Jk	16G\Jk	.	16b\JJ)
=10	=10	=10	=10
4F#\	4F#\	4cc#\	8a#\L
.	.	.	8cc#\J
8r	8r	8r	[4dd\
8F#\	8F#\	8aa\	.
8E\L	8E\L	8gg\L	8dd\L]
8E\J	8E\J	8gg\J	(16cc#\L
.	.	.	16b\JJ)
8E\L	8E\L	8gg\L	8cc#\L
(16F#\L	(16F#\L	(16aa\L	8cc#\J
16E\JJ)	16E\JJ)	16gg\JJ)	.
=11	=11	=11	=11
4D\	4D\	4ff#\	8cc#/L
.	.	.	8f#/J
8r	8r	8r	2b\
8D\	8D\	8ff#\	.
4C#/	4C#/	8ee\L	.
.	.	(16ff#\L	.
.	.	16gg\JJ)	.
4F#\	4F#\	8.ff#\L	4a#/
.	.	16ee\Jk	.
=12	=12	=12	=12
4BB/	4BB/	8dd\L	8b\L
.	.	8b\J	8dd\J
8r	8r	8r	[4gg\
8B\	8B\	8dd\	.
4.A\	4.A\	8cc#\L	8gg\L]
.	.	8cc#\J	(16aa\L
.	.	.	16gg\JJ)
.	.	8cc#\L	[4ff#\
(16B\LL	(16B\LL	(16dd\L	.
16A\JJ)	16A\JJ)	16cc#\JJ)	.
=13	=13	=13	=13
4.G\	4.G\	4.b\	8ff#\L]
.	.	.	(16gg\L
.	.	.	16ff#\JJ)
.	.	.	8.ee\L
8G\	8G\	(16cc#\LL	.
.	.	16b\JJ)	16ff#\Jk
4F#\	4F#\	4a#/	8ff#\L
.	.	.	8cc#\J
4D\	4D\	8r	[4ff#\
.	.	8aa\	.
=14	=14	=14	=14
4BB/	4BB/	4.gg\	8ff#\L]
.	.	.	(16ee\L
.	.	.	16dd\JJ)
4C#/	4C#/	.	8ee\L
.	.	16aa\LL	8ee\J
.	.	16gg\JJ	.
4.D\	4.D\	4.ff#\	8ee\L
.	.	.	8a\J
.	.	.	[4dd\
8D\	8D\	8ff#\	.
=15	=15	=15	=15
8A\L	8A\L	8ee\L	8dd\L]
8A\J	8A\J	8aa\	8cc#\J
8.B\L	8.B\L	8aa\	8dd\L
.	.	8gg\J	(16ee\L
16B\Jk	16B\Jk	.	16dd\JJ)
4A\	4A\	8gg\L	4cc#\
.	.	(16ff#\L	.
.	.	16ee\JJ)	.
8r	8r	[4ff#\	8r
8A\	8A\	.	(16dd\LL
.	.	.	16cc#\JJ)
=16	=16	=16	=16
8G\L	8G\L	8ff#\L]	8b\L
8G\J	8G\J	(16ee\L	8b\J
.	.	16dd\JJ)	.
8G\L	8G\L	8ee\L	8b\L
(16A\L	(16A\L	8ee\J	(16cc#\L
16G\JJ)	16G\JJ)	.	16b\JJ)
4.F#\	4.F#\	8ee\L	4.a/
.	.	8a\J	.
.	.	[4dd\	.
8F#\	8F#\	.	(16b/LL
.	.	.	16a/JJ)
=17	=17	=17	=17
4E\	4E\	4dd\]	8g/L
.	.	.	(16a/L
.	.	.	16b/JJ)
4A\	4A\	4cc#\	8.a/L
.	.	.	16g/Jk
8D\L	8D\L	4dd\	4f#/
8d\J	8d\J	.	.
[4B\	[4B\	8r	8r
.	.	8dd\	8ff#\
=18	=18	=18	=18
8B\L]	8B\L]	4cc#\	4ee\
(16A\L	(16A\L	.	.
16G\JJ)	16G\JJ)	.	.
[4A\	8A\L	8r	8r
.	8A\J	(16dd\LL	(16ff#\LL
.	.	16cc#\JJ)	16ee\JJ)
8A\L]	8A\L	4b\	4dd\
(16G\L	(16G\L	.	.
16F#\JJ)	16F#\JJ)	.	.
[4G\	[4G\	8r	8r
.	.	(16cc#\LL	(16ee\LL
.	.	16b\JJ)	16dd\JJ)
=19	=19	=19	=19
8G\L]	8G\L]	4a/	4cc#\
(16F#\L	(16F#\L	.	.
16E\JJ)	16E\JJ)	.	.
4F#\	8F#\L	8r	8r
.	8F#\J	8dd\	8ff#\
4G#\	4G#\	8dd\L	4.ee\
.	.	(16cc#\L	.
.	.	16b\JJ)	.
4A#\	4A#\	8cc#\L	.
.	.	8cc#\J	(16ff#\LL
.	.	.	16ee\JJ)
=20	=20	=20	=20
4.B\	4.B\	8cc#\L	4.dd\
.	.	(16b\L	.
.	.	16a#\JJ)	.
.	.	8b\L	.
8BB/	8BB/	8dd\J	8bb\
4C#/	4C#/	8ee\L	8bb\L
.	.	8ee\	(16aa\L
.	.	.	16gg\JJ)
4D#\	4D#\	8ff#\	8aa\L
.	.	8ff#\J	8aa\J
=21	=21	=21	=21
4.E\	4.E\	4b\	8aa\L
.	.	.	(16gg\L
.	.	.	16ff#\JJ)
.	.	8r	8gg\L
8GG/	8GG/	8b\	8gg\J
4AA/	4AA/	8cc\L	8gg\L
.	.	8cc\	(16ffn\L
.	.	.	16ee\JJ)
4BB/	4BB/	8dd\	8ff\L
.	.	8dd\J	8ff\J
=22	=22	=22	=22
4.C/	4.C/	4.g/	8ff\L
.	.	.	(16ee\L
.	.	.	16dd#\JJ)
.	.	.	2ee\
8GG/	8GG/	8b\	.
4AA/	4AA/	(16cc/LL	.
.	.	16b/)	.
.	.	(16a/	.
.	.	16g/JJ)	.
4BB/	4BB/	8.f#/L	8.ee\L
.	.	16f#/Jk	16dd#\Jk
=23	=23	=23	=23
4E\	4E\	8e/L	4ee\
.	.	8b/J	.
4C/	4C/	4ee\	8r
.	.	.	8e/
8BB\L	8BB\L	4r	8b\L
8G\	8G\	.	8b\
8E\	8E\	8r	8cc\
8F#\J	8F#\J	8aa\	8cc\J
=24	=24	=24	=24
4.G\	4.G\	4.dd\	8cc\L
.	.	.	(16b\L
.	.	.	16a\JJ)
.	.	.	8b\L
8BB/	8BB/	8dd\	8bb\J
4C#/	4C#/	8ee\L	8bb\L
.	.	8ee\	8aa\
4D#\	4D#\	8ff#\	8aa\
.	.	8ff#\J	8aa\J
=25	=25	=25	=25
4.E\	4.E\	4.b\	8aa\L
.	.	.	(16gg\L
.	.	.	16ff#\JJ)
.	.	.	8gg\L
8E\	8E\	8b\	8gg\J
4.AA#/	4.AA#/	8cc#\L	8ff#\L
.	.	8cc#\	8ee\J
.	.	8cc#\	8ee\L
8AA#/	8AA#/	8cc#\J	(16ff#\L
.	.	.	16ee\JJ)
=26	=26	=26	=26
4.BB/	4.BB/	8cc#\L	4.dd\
.	.	(16b\L	.
.	.	16a#\JJ)	.
.	.	8b\L	.
8B\	8B\	[8gg\J	8dd\
4A\	4A\	8gg\]	4cc#\
.	.	4ff#\	.
4G\	4G\	.	4b\
.	.	8ff#\	.
=27	=27	=27	=27
4F#\	4F#\	4ff#\	4a#/
4D\	4D\	[4aa\	4r
4G\	4G\	8aa\L]	4.bb\
.	.	(16gg\L	.
.	.	16ff#\JJ)	.
4E\	4E\	8gg\L	.
.	.	8gg\J	8ee\
=28	=28	=28	=28
4C#/	4C#/	8gg\L	4.aa\
.	.	(16ff#\L	.
.	.	16ee\JJ)	.
4D\	4D\	[4ff#\	.
.	.	.	8dd\
4BB/	4BB/	8ff#\L]	4.gg\
.	.	(16ee\L	.
.	.	16dd\JJ)	.
4C#/	4C#/	8ee\L	.
.	.	8ee\J	(16aa\LL
.	.	.	16gg\JJ)
=29	=29	=29	=29
4.D\	4.D\	8ee\L	4ff#\
.	.	8a\J	.
.	.	2dd\	8r
8F#\	8F#\	.	8a/
4G\	4G\	.	(16b/LL
.	.	.	16a/)
.	.	.	(16g/
.	.	.	16f#/JJ)
4A\	4A\	4cc#\	8.e/L
.	.	.	16e/Jk
=30	=30	=30	=30
4D\	4D\	8dd/L	4d/
.	.	8f#/J	.
8r	4r	4b\	8r
*clefG2	*	*	*
8b\	.	.	8b\
8ff#\L	2r	4r	8ff#\L
8ff#\J	.	.	8ff#\J
8.gg\L	.	8r	8.gg\L
.	.	8bb\	.
16gg\Jk	.	.	16gg\Jk
=31	=31	=31	=31
8gg\L	4r	4.aa\	8gg\L
8cc#\	.	.	8cc#\J
8ff#\	8r	.	[4ff#\
*clefF4	*	*	*
8F#\J	8F#\	(16bb\LL	.
.	.	16aa\JJ)	.
8B\L	8B\L	4.gg\	8ff#\L]
8B\J	8B\J	.	(16gg\L
.	.	.	16ff#\JJ)
8.c#\L	8.c#\L	.	8ee\L
.	.	(16aa\LL	8ee\J
16c#\Jk	16c#\Jk	16gg\JJ)	.
=32	=32	=32	=32
4.d\	4.d\	4.ff#\	8ee\L
.	.	.	8a\J
.	.	.	2dd\
8F#\	8F#\	8aa\	.
4G\	4G\	8bb\L	.
.	.	8ee\J	.
4A\	4A\	8.ee\L	4cc#\
.	.	16dd\Jk	.
=33	=33	=33	=33
4D\	4D\	4.dd\	8dd/L
.	.	.	8f#/J
8r	8r	.	4b\
8BB/	8BB/	8dd\	.
8F#\L	8F#\L	8cc#\L	4a#/
8F#\J	8F#\J	(16dd\L	.
.	.	16cc#\JJ)	.
8.G\L	8.G\L	8b\L	4b\
.	.	(16cc#\L	.
16G\Jk	16G\Jk	16b\JJ)	.
=34	=34	=34	=34
4F#\	4F#\	8a#\L	4cc#\
.	.	8cc#\J	.
4D\	4D\	[4ff#\	8r
.	.	.	8aa\
4BB/	4BB/	8ff#\L]	4.gg\
.	.	(16ee\L	.
.	.	16dd\JJ)	.
4C#/	4C#/	8ee\L	.
.	.	8ee\J	(16aa\LL
.	.	.	16gg\JJ)
=35	=35	=35	=35
4D\	4D\	8ee\L	4.ff#\
.	.	8a\J	.
4F#\	4F#\	[4dd\	.
.	.	.	(16gg\LL
.	.	.	16ff#\JJ)
4G#\	4G#\	8dd\L]	8ee\L
.	.	(16cc#\L	8ee\J
.	.	16b\JJ)	.
4A#\	4A#\	8cc#\L	8ee\L
.	.	8cc#\J	(16ff#\L
.	.	.	16ee\JJ)
=36	=36	=36	=36
4.B\	4.B\	8cc#/L	4.dd\
.	.	8f#/J	.
.	.	2b\	.
8BB/	8BB/	.	(16ee\LL
.	.	.	16dd\JJ)
8F#\L	8F#\L	.	8cc#\L
8E\	8E\	.	8dd\J
8F#\	8F#\	8.b/L	8.cc#\L
8FF#\J	8FF#\J	.	.
.	.	16a#/Jk	16cc#\Jk
=37	=37	=37	=37
4BB/	4BB/	4b\	4b\
4D\	4D\	[4ff#\	8r
.	.	.	8aa\
4BB/	4BB/	8ff#\L]	4.gg\
.	.	(16ee\L	.
.	.	16dd\JJ)	.
4C#/	4C#/	8ee\L	.
.	.	8ee\J	(16aa\LL
.	.	.	16gg\JJ)
=38	=38	=38	=38
4D\	4D\	8ee\L	4.ff#\
.	.	8a\J	.
4F#\	4F#\	[4dd\	.
.	.	.	(16gg\LL
.	.	.	16ff#\JJ)
4G#\	4G#\	8dd\L]	8ee\L
.	.	(16cc#\L	8ee\J
.	.	16b\JJ)	.
4A#\	4A#\	8cc#\L	8ee\L
.	.	8cc#\J	(16ff#\L
.	.	.	16ee\JJ)
=39	=39	=39	=39
4.B\	4.B\	8cc#/L	4.dd\
.	.	8f#/J	.
.	.	2b\	.
8BB/	8BB/	.	(16ee\LL
.	.	.	16dd\JJ)
8F#\L	8F#\L	.	8cc#\L
8E\	8E\	.	8dd\J
8F#\	8F#\	8.b/L	8.cc#\L
8FF#\J	8FF#\J	.	.
.	.	16a#/Jk	16cc#\Jk
=40	=40	=40	=40
1BB/	1BB/	1b\	1b\
==	==	==	==
*-	*-	*-	*-
!!!CDT: 1653/2/17/-1713/1/8
!!!OCY: Italia
!!!ODE: Queen Christina Alexandra of Sweden
!!!ODT: 1681//
!!!OPC: Roma; Rome
!!!AGN: trio sonata
!!!AST: baroque, chamber
!!!AMT: simple quadruple
!!!YOR1: J. Joachim & F. Chrysander (eds.) Les Oeuvre de Arcangelo Corelli
!!!YOR2: London: Augener & Co. 1871
!!!YOY: 1871
!!!AIN: archl cello organ violn
!!!EEV: 1.1
!!!RDT: 1993 August 23
!!!YER: 1994 December 14
!!!EMD: 1996 July 9
!!!YEN: United States of America
!!!EFL: 2/4
!!!ENC: Frances Bennion & Steven Rasmussen
!!!EED: W.B. Hewlett
!!!VTS: 3363911850
